X:1
T:The LORD unto My Lord Has Said
T:Text: Psalm 110; vers. Psalter, 1912, alt. Tune: Henry S. Cutler, 1872
T:CMD ALL SAINTS NEW www.hymnary.org/text/the_lord_unto_his_christ_has_said_sit_th
T:The LORD unto My Lord Has Said
T:This hymn is in the public domain. You may freely use this score for personal and congregational worship. If you reproduce the score, please credit Hymnary.org as the source. 
T:This hymn is in the public domain. You may freely use this score for personal and congregational worship. If you reproduce the score, please credit Hymnary.org as the source. 
Z:This hymn is in the public domain. You may freely use this score for personal and congregational worship. If you reproduce the score, please credit Hymnary.org as the source.
%%score ( 1 2 ) ( 3 4 )
L:1/8
M:4/4
K:Bb
V:1 treble nm="SOPRANO ALTO" snm="S. A."
V:2 treble 
V:3 bass nm="TENOR BASS" snm="T. B."
V:4 bass 
V:1
"^1""^2""^3" F2 | D3 E F2 B2 | B3 A A2 B2 | c2 d2 e2 d2 | c6 | c2 | d3 c B2 A2 | A3 G G2 G2 | %8
w: The|LORD un- to my|Lord has said, "Sit|here at my right|hand|un-|til I make your|en- e- mies sub-|
w: Your|peo- ple will be|glad- ly yours when|you a- rise in|might,|like|dawn- ing day, like|hope- ful youth, with|
w: You|shall sub- due the|kings of earth, with|God at your right|hand;|the|na- tions you shall|rule in might and|
 F2 B2 A3 B | B6 | B2 | B2 B2 A2 A2 | G3 G G2 G2 | F2 F2 F2 F2 | F6 |1 E2 | D3 E F2 B2 | %17
w: mit to your com-|mand."|A|scep- ter pros- pered|by the LORD your|might- y hand shall|wield;|from|Zi- on you shall|
w: ho- ly beau- ty|bright.|The|priest- hood of Mel-|chiz- e- dek the|LORD has giv- en|you;|it|shall re- main for-|
w: judge in ev- ery|land.|The|Lord, re- freshed by|liv- ing streams, shall|nei- ther faint nor|fall,|and|he shall be the|
 B3 A A2 B2 | d2 c2 B2 A2 | B6 x2 |] %20
w: rule the world, and|all your foes shall|yield.|
w: ev- er- more; God's|word is al- ways|true.|
w: glo- rious head, ex-|alt- ed o- ver|all.|
V:2
 D2 | B,3 C D2 D2 | E3 E E2 F2 | G2 F2 E2 F2 | (F2 =E2 F2) | F2 | F3 F F2 ^F2 | ^F3 G G2 E2 | %8
 E2 D2 C3 D | D6 | F2 | G2 G2 G2 ^F2 | G3 D E2 E2 | E2 D2 C2 F2 | (A,2 C2 B,2) |1 A,2 | %16
 B,3 C D2 D2 | E3 E E2 F2 | F2 G2 F2 E2 | D6 x2 |] %20
V:3
 B,2 | F,3 F, B,2 D2 | C3 C C2 B,2 | B,2 B,2 B,2 B,2 | (C2 B,2 A,2) | A,2 | B,3 A, B,2 C2 | %7
 C3 B, B,2 B,2 | A,2 B,2 C3 B, | B,6 | D2 | D2 D2 D2 C2 | =B,3 B, C2 C2 | C2 _B,2 A,2 G,2 | %14
 (F,2 A,2 B,2) |1 F,2 | F,3 F, B,2 D2 | C3 C C2 B,2 | B,2 G,2 D2 C2 | B,6 x2 |] %20
V:4
 B,,2 | B,,3 B,, B,,2 B,,2 | C,3 C, C,2 D,2 | E,2 F,2 G,2 B,2 | (A,2 G,2 F,2) | F,2 | %6
 B,,3 C, D,2 D,2 | E,3 E, E,2 E,2 | F,2 F,2 F,3 B,, | B,,6 | B,2 | G,2 G,2 D,2 D,2 | %12
 G,,3 G,, C,2 C,2 | F,2 F,2 F,2 F,2 | (F,2 E,2 D,2) |1 C,2 | B,,3 B,, B,,2 B,,2 | C,3 C, C,2 D,2 | %18
 B,,2 E,2 F,2 F,2 | B,,6 x2 |] %20

